X:1
T:Benedicta et venerabilis
T:Costanzo Porta
T:Audi filia et vide
C:Costanzo Porta
%%score [ 1 2 3 4 ]
L:1/8
Q:1/4=200
M:2/2
K:C
V:1 alto1 nm="Cantus" snm="C"
V:2 alto2 nm="Altus" snm="A"
V:3 tenor nm="Tenor" snm="T"
V:4 bass nm="Bassus" snm="B"
V:1
 x8 | x8 |[M:4/2][K:treble] z8 A8- | A8 E8- | E8 A8- | A4 B4 c4 A4 | c4 B2 A2 G2 E2 A4- | %7
w: ||Au-|* di|_ fi-|* li- a, et|vi- * * * * *|
 A2 G2 F4 E8 | z8 A8- | A8 D8 | z4 F8 G4 | A4 F4 _B8 | A8 z8 | A12 B4 | c4 A4 c6 B2 | A4 G4 A8 | %16
w: * * * de,|Au-|* di|fi- li-|a, et vi-|de,|et in-|cli- na au- *|* rem tu-|
 E8 z4 F4- | F4 F4 E4 G4- | G4 c4 A8 | c4 B4 z4 A4- | A4 A4 G4 c4- | c4 A4 _B4 G4 | A8 z8 | %23
w: am: quo-|* ni- am con-|* cu- pi-|vit Rex, quo-|* ni- am con-|* cu- pi- vit|Rex|
 z8 A6 A2 | G4 c8 B2 A2 | B4 A4 z4 A4- | A4 A4 c4 B2 A2 | G4 c8 A4 | B4 d4 c8 | z4 A8 A4 | %30
w: spe- ci-|em tu- * *|* am, quo-|* ni- am _ _|_ con- cu-|pi- vit Rex,|quo- ni-|
 D4 A4 _B4 G4 | F4 E4 z4 F4- | F4 F4 E4 A4- | A4 G2 F2 G4 A4 | A4 ^F4 G4 E4- | E4 D8 ^C4 | %36
w: am con- cu- pi-|vit Rex spe-|* ci- em tu-|* * * * am,|spe- ci- em tu-||
 !fermata!D16 |] %37
w: am.|
V:2
 x8 | x8 |[M:4/2][K:treble] D16 | A,8 C8- | C4 D4 E4 C4 | F16 | E16 | z8 z4 E4- | E4 F6 E2 D4 | %9
w: ||Au-|di fi-|* li- a, et|vi-|de,|et|_ vi- * *|
 C8 z8 | z8 z4 D4 | E4 F8 E2 D2 | C4 D4 z4 C4 | D4 E8 D4 | E2 D2 C2 B,2 A,4 E4 | %15
w: de,|et|in- cli- * *|* na, et|in- cli- na|au- * * * * rem|
 F4 E2 D2 C2 A,2 D4- | D4 C4 D8 | z16 | E6 E2 F4 E2 D2 | E4 E8 C4 | D4 F4 E8 | z4 D8 D4 | %22
w: tu- * * * * *|* * am:||quo- ni- am _ _|_ con- cu-|pi- vit Rex|spe- ci-|
 C4 F8 E2 D2 | E4 C4 D4 F4 | E4 E8 C4 | D4 F4 E8 | F4 D4 E4 E4- | E4 C4 E4 F4 | D8 E8 | F12 F4 | %30
w: em tu- * *|* am, quo- ni-|am con- cu-|pi- vit Rex,|quo- ni- am con-|* cu- pi- vit|Rex spe-|* ci-|
 F6 E2 D4 D4- | D4 C4 D6 CB, | A,16- | A,8 z8 | D8 B,4 C4- | C2 B,2 A,4 A,8 | A,16 |] %37
w: em _ _ tu-|* * am, _ _|_||spe- ci- em|_ _ _ tu-|am.|
V:3
 x8 | x8 |[M:4/2][K:treble-8] z16 | z16 | A16 | D8 A8- | A4 B4 c4 A4 | d8 c8 | z16 | z4 A8 B4 | %10
w: ||||Au-|di fi-|* li- a, et|vi- de,||fi- li-|
 c4 A4 d8 | c4 A8 G4 | A2 G2 F2 E2 D4 A4 | F4 E4 F8 | E16 | z16 | A12 A4 | D4 A8 G4 | %18
w: a, et vi-|de, et in-|cli- * * * * na|au- rem tu-|am:||quo- ni-|am con- cu-|
 c2 B2 A2 G2 F2 D2 A4- | A4 G4 A8 | z8 z4 A4- | A4 F4 G4 _B4 | A16- | A16 | z16 | z8 A8- | %26
w: pi- * * * * * *|* vit Rex,|con-|* cu- pi- vit|Rex,|_||quo-|
 A4 A4 G8 | z4 A8 F4 | G4 _B4 A8 | D12 D4 | D8 z8 | z8 D8- | D4 D4 C4 F4- | F4 E2 D2 E4 D4 | %34
w: * ni- am|con- cu-|pi- vit Rex|spe- ci-|em,|spe-|* ci- em tu-|* * * * am,|
 A6 A2 G4 A4- | A2 G2 F4 E8 | D16 |] %37
w: spe- ci- em tu-||am.|
V:4
 x8 | x8 |[M:4/2] z16 | z16 | z16 | z16 | z16 | z8 A,8- | A,8 D,8 | F,12 G,4 | A,4 F,4 _B,8 | %11
w: |||||||Au-|* di|fi- li-|a, et vi-|
 A,4 D,8 E,4 | F,4 D,4 F,6 E,2 | D,4 C,4 D,8 | A,,16 | z16 | z8 D,8- | D,4 D,4 A,,4 E,4- | %18
w: de, et in-|cli- na au- *|* rem tu-|am:||quo-|* ni- am con-|
 E,4 C,4 D,4 F,4 | E,8 z8 | z16 | z16 | z4 D,8 D,4 | C,4 F,8 E,2 D,2 | E,2 D,2 C,2 B,,2 A,,8 | %25
w: * cu- pi- vit|Rex|||spe- ci-|em tu- * *||
 G,,4 D,8 C,4 | D,4 F,4 E,8 | z16 | z8 z4 A,4- | A,4 A,4 D,4 A,4- | A,4 F,4 G,4 _B,4 | A,16 | %32
w: am, con- cu-|pi- vit Rex,||quo-|* ni- am con-|* cu- pi- vit|Rex|
 z8 z4 D,4- | D,4 D,4 C,4 F,4- | F,4 E,2 D,2 E,2 D,2 C,2 B,,2 | A,,16 | D,16 |] %37
w: spe-|* ci- em tu-|||am.|

